X:190
T: Ballinafad
S: "Treoir"
Z: B.Black
M: 4/4
L: 1/8
R: reel
K: D
A |: dfec A2 AB | cdef gfec | dfec A2 AB |\
cAGE ED D2 :|
d2 fd adfd | Aceg fdec | d2 fd adfd |\
efge fddc |
d2 fd adfd | cdef g2 fe | defg abaf |\
gfeg fd d2 ||
